src/icons/svg-colors/advantages6.svg

<svg width="52" height="60" viewBox="0 0 52 60" fill="none" xmlns="http://www.w3.org/2000/svg">
<g clip-path="url(#clip0_47:6992)">
<path d="M37.2837 56.7873C37.2837 58.2684 35.7299 59.2356 34.4009 58.5819L26.8538 54.8696C26.2958 54.5951 25.6419 54.5958 25.0844 54.8715L17.6015 58.5723C16.2722 59.2297 14.7148 58.2625 14.7148 56.7796V33.0825C14.7148 32.3673 15.0968 31.7065 15.7165 31.3495L24.973 26.0169C25.5895 25.6618 26.3483 25.6609 26.9657 26.0146L36.278 31.3503C36.9 31.7067 37.2837 32.3687 37.2837 33.0856V56.7873Z" fill="#01579B"/>
<path d="M25.9696 50.5814C24.8075 50.5814 24.0124 49.7252 23.3396 48.9912C23.095 48.7466 22.6057 48.2573 22.4222 48.1961C22.2387 48.1961 21.6883 48.5019 21.3213 48.6854C20.5873 49.0524 19.8534 49.4805 19.0583 49.4805C18.8136 49.4805 18.569 49.4194 18.3855 49.3582C17.2846 48.9912 16.7953 47.9515 16.3672 47.034C16.1837 46.6671 15.939 46.1166 15.7555 45.9943C15.7555 45.9943 15.6944 45.9943 15.5721 45.9943C15.2662 45.9943 14.8993 46.0554 14.5323 46.1166C14.043 46.1778 13.5537 46.3001 13.0644 46.3001C12.4528 46.3001 11.9023 46.1778 11.4742 45.8108C10.5568 45.138 10.3733 43.9759 10.251 42.9973C10.1898 42.6304 10.1286 41.9576 10.0063 41.7741C9.88398 41.6518 9.2112 41.5906 8.84423 41.5294C7.86563 41.4071 6.70355 41.2236 6.03077 40.3062C5.35799 39.3888 5.54147 38.2879 5.72496 37.2481C5.78612 36.8811 5.90845 36.2083 5.84728 36.0249C5.72496 35.9025 5.1745 35.5967 4.80753 35.4132C3.95126 34.9851 2.85034 34.4958 2.48337 33.3949C2.1164 32.3551 2.66685 31.3154 3.15615 30.4591C3.33964 30.0921 3.64545 29.5417 3.64545 29.297C3.58429 29.1135 3.15615 28.6854 2.85034 28.4408C2.17756 27.8903 1.32129 27.034 1.32129 25.872C1.32129 24.7099 2.17756 23.9148 2.9115 23.242C3.21731 22.9973 3.64545 22.508 3.70661 22.3246C3.70661 22.1411 3.4008 21.5906 3.21731 21.2236C2.72802 20.3062 2.17756 19.3276 2.54453 18.2879C2.9115 17.1869 3.95126 16.6976 4.86869 16.2695C5.23566 16.086 5.78612 15.8414 5.90845 15.6579C5.96961 15.4744 5.84728 14.8628 5.78612 14.4346C5.60263 13.456 5.41915 12.294 6.09193 11.3765C6.76471 10.4591 7.92679 10.2756 8.90539 10.1533C9.27236 10.0921 9.94514 10.031 10.1286 9.90865C10.251 9.78633 10.3121 9.11354 10.3733 8.74657C10.4956 7.76798 10.6791 6.6059 11.5965 5.93311C11.9023 5.6273 12.4528 5.50498 13.0644 5.50498C13.5537 5.50498 14.043 5.56614 14.5323 5.68847C14.8993 5.74963 15.2662 5.81079 15.5721 5.81079C15.6944 5.81079 15.7555 5.81079 15.7555 5.81079C15.8779 5.68847 16.1837 5.13801 16.3672 4.77103C16.7953 3.91476 17.2846 2.81385 18.3855 2.44687C18.6302 2.38571 18.8136 2.32455 19.0583 2.32455C19.8534 2.32455 20.5873 2.69152 21.3213 3.11966C21.6883 3.30314 22.2387 3.60895 22.4834 3.60895C22.6669 3.54779 23.095 3.11966 23.3396 2.81385C24.0124 2.0799 24.8687 1.22363 25.9696 1.22363C27.1317 1.22363 27.9268 2.0799 28.5996 2.81385C28.8442 3.11966 29.3335 3.54779 29.517 3.60895C29.7005 3.60895 30.251 3.30314 30.6179 3.11966C31.3519 2.75268 32.0858 2.32455 32.8809 2.32455C33.1256 2.32455 33.3702 2.38571 33.5537 2.44687C34.6546 2.81385 35.1439 3.8536 35.5721 4.77103C35.7555 5.13801 36.0002 5.68847 36.1837 5.81079C36.1837 5.81079 36.2448 5.81079 36.3672 5.81079C36.673 5.81079 37.0399 5.74963 37.4069 5.68847C37.8962 5.56614 38.4467 5.50498 38.936 5.50498C39.5476 5.50498 40.098 5.6273 40.5262 5.99428C41.4436 6.66706 41.6271 7.82914 41.7494 8.80773C41.8106 9.1747 41.8717 9.84749 41.9941 10.031C42.1164 10.1533 42.7892 10.2145 43.1562 10.2756C44.1348 10.3979 45.2968 10.5814 45.9696 11.4989C46.6424 12.4163 46.4589 13.5172 46.2754 14.557C46.2143 14.9239 46.0919 15.5967 46.1531 15.7802C46.2754 15.9025 46.8259 16.2083 47.1929 16.3918C48.0491 16.82 49.15 17.3093 49.517 18.4102C49.884 19.4499 49.3335 20.4897 48.8442 21.346C48.6607 21.7129 48.3549 22.2634 48.3549 22.508C48.4161 22.6915 48.8442 23.1197 49.15 23.3643C49.8228 24.0371 50.7403 24.8934 50.7403 25.9943C50.7403 27.1564 49.884 27.9515 49.15 28.6242C48.8442 28.8689 48.4161 29.3582 48.3549 29.5417C48.3549 29.7252 48.6607 30.2756 48.8442 30.6426C49.3335 31.56 49.884 32.5386 49.517 33.5784C49.15 34.6793 48.1103 35.1686 47.1929 35.5967C46.8259 35.7802 46.2754 36.0249 46.1531 36.2083C46.0919 36.3918 46.2143 37.0035 46.2754 37.4316C46.4589 38.4102 46.6424 39.5723 45.9696 40.4897C45.2968 41.4071 44.1348 41.5906 43.1562 41.7129C42.7892 41.7741 42.1164 41.8353 41.9329 41.9576C41.8106 42.0799 41.7494 42.7527 41.6883 43.1197C41.5659 44.0983 41.3825 45.2603 40.465 45.9331C40.0369 46.2389 39.5476 46.4224 38.8748 46.4224C38.3855 46.4224 37.8962 46.3613 37.4069 46.2389C37.0399 46.1778 36.673 46.1166 36.3672 46.1166C36.2448 46.1166 36.1837 46.1166 36.1837 46.1166C36.0614 46.2389 35.7555 46.7894 35.5721 47.1564C35.1439 48.0126 34.6546 49.1135 33.5537 49.4805C33.3091 49.5417 33.1256 49.6028 32.8809 49.6028C32.0858 49.6028 31.3519 49.2359 30.6179 48.8077C30.251 48.6242 29.7005 48.3184 29.4558 48.3184C29.2724 48.3796 28.8442 48.8077 28.5996 49.1135C27.988 49.664 27.1317 50.5814 25.9696 50.5814Z" fill="white"/>
<path d="M25.9692 2.44648C27.1313 2.44648 28.171 4.58716 29.3331 4.77064C29.3943 4.77064 29.4555 4.77064 29.5166 4.77064C30.5564 4.77064 31.9019 3.48624 32.9417 3.48624C33.064 3.48624 33.1863 3.48624 33.2475 3.5474C34.3484 3.91437 34.6542 6.2997 35.694 6.78899C35.8775 6.91132 36.1833 6.91132 36.4279 6.91132C37.223 6.91132 38.1405 6.6055 38.9356 6.6055C39.2414 6.6055 39.5472 6.66667 39.7918 6.85015C40.7704 7.52294 40.2811 9.90826 41.1374 10.7034C41.9937 11.5596 44.3178 11.0703 44.9906 12.0489C45.6634 12.9664 44.5013 15.107 45.0518 16.1468C45.6022 17.1865 47.9264 17.4924 48.2934 18.5933C48.6603 19.6942 46.8866 21.3456 47.0701 22.5076C47.2536 23.6697 49.3943 24.6483 49.3943 25.8716C49.3943 27.0948 47.2536 28.0734 47.0701 29.2355C46.8866 30.3976 48.6603 32.0489 48.2934 33.1498C47.9264 34.2508 45.5411 34.5566 45.0518 35.5963C44.5013 36.6361 45.6634 38.7156 44.9906 39.6942C44.3178 40.6728 41.9325 40.1835 41.1374 41.0398C40.2811 41.896 40.7704 44.2202 39.7918 44.893C39.5472 45.0765 39.2414 45.1376 38.9356 45.1376C38.2016 45.1376 37.223 44.8318 36.4279 44.8318C36.1221 44.8318 35.8775 44.893 35.694 44.9541C34.6542 45.5046 34.3484 47.8288 33.2475 48.1957C33.1252 48.2569 33.064 48.2569 32.9417 48.2569C31.9019 48.2569 30.5564 46.9725 29.5166 46.9725C29.4555 46.9725 29.3943 46.9725 29.3331 46.9725C28.171 47.156 27.1925 49.2966 25.9692 49.2966C24.746 49.2966 23.7674 47.156 22.6053 46.9725C22.5441 46.9725 22.483 46.9725 22.4218 46.9725C21.3821 46.9725 20.0365 48.2569 18.9967 48.2569C18.8744 48.2569 18.7521 48.2569 18.6909 48.1957C17.59 47.8288 17.2842 45.4434 16.2444 44.9541C16.061 44.8318 15.7551 44.8318 15.5105 44.8318C14.7154 44.8318 13.798 45.1376 13.0029 45.1376C12.697 45.1376 12.3912 45.0765 12.1466 44.893C11.168 44.2202 11.6573 41.8349 10.801 41.0398C9.94475 40.1835 7.62059 40.6728 6.94781 39.6942C6.27503 38.7768 7.43711 36.6361 6.88665 35.5963C6.33619 34.5566 3.95087 34.2508 3.64506 33.1498C3.27808 32.0489 5.05178 30.3976 4.8683 29.2355C4.68481 28.0734 2.54414 27.0948 2.54414 25.8716C2.54414 24.7095 4.68481 23.6697 4.8683 22.5076C5.05178 21.3456 3.27808 19.6942 3.64506 18.5933C4.01203 17.4924 6.39735 17.1865 6.88665 16.1468C7.43711 15.107 6.27503 13.0275 6.94781 12.0489C7.62059 11.0703 10.0059 11.5596 10.801 10.7034C11.6573 9.8471 11.168 7.52294 12.1466 6.85015C12.3912 6.66667 12.697 6.6055 13.0029 6.6055C13.798 6.6055 14.7154 6.91132 15.5105 6.91132C15.8163 6.91132 16.061 6.85015 16.2444 6.78899C17.2842 6.23853 17.59 3.91437 18.6909 3.5474C18.8132 3.48624 18.8744 3.48624 18.9967 3.48624C20.0365 3.48624 21.3821 4.77064 22.4218 4.77064C22.483 4.77064 22.5441 4.77064 22.6053 4.77064C23.7674 4.58716 24.8071 2.44648 25.9692 2.44648ZM25.9692 0C24.3178 0 23.1558 1.16208 22.4218 1.95719C22.3607 2.01835 22.2995 2.14067 22.1772 2.20183C22.0548 2.14067 21.9325 2.07951 21.8714 2.01835C21.0762 1.59021 20.1588 1.10092 19.0579 1.10092C18.6909 1.10092 18.324 1.16208 17.957 1.2844C16.3668 1.7737 15.694 3.24159 15.2047 4.22018C15.1435 4.28135 15.0824 4.40367 15.0824 4.52599C14.96 4.52599 14.8377 4.46483 14.7154 4.46483C14.2261 4.34251 13.6756 4.28135 13.064 4.28135C12.1466 4.28135 11.4126 4.52599 10.7399 4.95413C9.39429 5.93272 9.2108 7.52294 9.02732 8.56269C9.02732 8.68502 8.96616 8.80734 8.96616 8.92966C8.84383 8.92966 8.72151 8.99083 8.59918 8.99083C7.55943 9.11315 5.96922 9.3578 4.99062 10.7034C4.01203 12.0489 4.31784 13.6391 4.50133 14.6789C4.50133 14.8012 4.56249 14.9235 4.56249 15.0459C4.44016 15.107 4.379 15.1682 4.25668 15.1682C3.27808 15.6575 1.81019 16.3303 1.3209 17.9205C0.831601 19.5107 1.56555 20.8563 2.05484 21.8349C2.116 21.9572 2.17717 22.0184 2.23833 22.1407C2.17717 22.2018 2.05484 22.3242 1.99368 22.3853C1.25974 23.1193 0.0976562 24.2202 0.0976562 25.8716C0.0976562 27.5229 1.25974 28.685 2.05484 29.419C2.116 29.4801 2.23833 29.5413 2.29949 29.6636C2.23833 29.7859 2.17717 29.9083 2.116 29.9694C1.56555 30.948 0.831601 32.2936 1.38206 33.8838C1.87136 35.474 3.33925 36.1468 4.31784 36.6361C4.379 36.6973 4.50133 36.7584 4.62365 36.8196C4.62365 36.9419 4.56249 37.0642 4.56249 37.1865C4.379 38.1651 4.07319 39.7554 5.05178 41.1009C6.03038 42.4465 7.62059 42.63 8.66035 42.8135C8.78267 42.8135 8.90499 42.8746 9.02732 42.8746C9.02732 42.9969 9.08848 43.1193 9.08848 43.2416C9.2108 44.2813 9.45545 45.8716 10.801 46.8502C11.4126 47.3395 12.2077 47.5229 13.1252 47.5229C13.7368 47.5229 14.2873 47.4006 14.7766 47.3395C14.8989 47.3395 15.0212 47.2783 15.1435 47.2783C15.2047 47.4006 15.2659 47.4618 15.2659 47.5841C15.7551 48.5627 16.4279 50.0306 18.0181 50.5199C18.3851 50.6422 18.7521 50.7034 19.1191 50.7034C20.22 50.7034 21.1986 50.2141 21.9325 49.7859C22.0548 49.7248 22.116 49.6636 22.2383 49.6025C22.2995 49.6636 22.4218 49.7859 22.483 49.8471C23.2169 50.6422 24.379 51.8043 26.0304 51.8043C27.6818 51.8043 28.8438 50.6422 29.5778 49.8471C29.6389 49.7859 29.7001 49.6636 29.8224 49.6025C29.9447 49.6636 30.0671 49.7248 30.1282 49.7859C30.9233 50.2141 31.8408 50.7034 32.9417 50.7034C33.3087 50.7034 33.6756 50.6422 34.0426 50.5199C35.6328 50.0306 36.3056 48.5627 36.7949 47.5841C36.8561 47.5229 36.9172 47.4006 36.9172 47.2783C37.0395 47.2783 37.1619 47.3395 37.2842 47.3395C37.7735 47.4006 38.3851 47.5229 38.9356 47.5229C39.853 47.5229 40.5869 47.2783 41.2597 46.8502C42.6053 45.8716 42.7888 44.2813 42.9723 43.2416C42.9723 43.1193 43.0334 42.9969 43.0334 42.8746C43.1558 42.8746 43.2781 42.8135 43.4004 42.8135C44.4402 42.6911 46.0304 42.4465 47.009 41.1009C47.9876 39.7554 47.6817 38.1651 47.4983 37.1254C47.4983 37.0031 47.4371 36.8807 47.4371 36.7584C47.5594 36.6973 47.6206 36.6361 47.7429 36.6361C48.7215 36.1468 50.1894 35.474 50.6787 33.8838C51.168 32.2936 50.434 30.948 49.9447 29.9694C49.8836 29.8471 49.8224 29.7859 49.7613 29.6636C49.8224 29.6024 49.9447 29.4801 50.0059 29.419C50.801 28.685 51.9631 27.5229 51.9631 25.8716C51.9631 24.2202 50.801 23.0581 50.0059 22.3242C49.9447 22.263 49.8224 22.2018 49.7613 22.0795C49.8224 21.9572 49.8836 21.8349 49.9447 21.7737C50.4952 20.7951 51.2291 19.4495 50.6787 17.8593C50.1894 16.2691 48.7215 15.5963 47.7429 15.107C47.6818 15.0459 47.5594 14.9847 47.4371 14.9847C47.4371 14.8624 47.4983 14.7401 47.4983 14.6177C47.6817 13.578 47.9876 11.9878 47.009 10.6422C46.0304 9.29664 44.4402 9.11315 43.4004 8.92966C43.2781 8.92966 43.1558 8.8685 43.0334 8.8685C43.0334 8.74618 42.9723 8.62385 42.9723 8.50153C42.8499 7.46177 42.6053 5.87156 41.2597 4.89297C40.6481 4.40367 39.853 4.22018 38.9356 4.22018C38.324 4.22018 37.7735 4.34251 37.2842 4.40367C37.1619 4.40367 37.0395 4.46483 36.9172 4.46483C36.8561 4.40367 36.7949 4.28135 36.7337 4.22018C36.2444 3.24159 35.5717 1.7737 33.9814 1.2844C33.6145 1.16208 33.2475 1.10092 32.8805 1.10092C31.7796 1.10092 30.801 1.59021 30.0671 2.01835C29.9447 2.07951 29.8836 2.14067 29.7613 2.20183C29.7001 2.14067 29.5778 2.01835 29.5166 1.95719C28.7827 1.16208 27.6818 0 25.9692 0Z" fill="#060F42"/>
<path d="M42.1776 25.872C42.1776 34.8628 34.9605 42.08 25.9697 42.08C17.04 42.08 9.76172 34.8017 9.76172 25.872C9.76172 16.9424 17.04 9.66406 25.9697 9.66406C34.9605 9.66406 42.1776 16.9424 42.1776 25.872Z" fill="white"/>
<path d="M25.9693 43.3028C16.3668 43.3028 8.53809 35.4741 8.53809 25.8716C8.53809 16.2692 16.3668 8.44043 25.9693 8.44043C35.5717 8.44043 43.4005 16.2692 43.4005 25.8716C43.4005 35.4741 35.5717 43.3028 25.9693 43.3028ZM25.9693 10.8869C17.7124 10.8869 10.9846 17.6147 10.9846 25.8716C10.9846 34.1285 17.7124 40.8563 25.9693 40.8563C34.2262 40.8563 40.954 34.1285 40.954 25.8716C40.954 17.6147 34.2262 10.8869 25.9693 10.8869Z" fill="#060F42"/>
<path d="M25.0827 19.2852C25.4479 18.5464 26.4997 18.5416 26.8716 19.277L28.4282 22.3549C28.5738 22.6426 28.8491 22.8425 29.1678 22.8918L32.6089 23.4239C33.4247 23.5501 33.745 24.5543 33.1529 25.1295L30.6864 27.5255C30.4515 27.7537 30.3432 28.0824 30.3965 28.4055L30.9619 31.8334C31.0965 32.6493 30.2389 33.2667 29.5079 32.8802L26.4364 31.2561C26.1439 31.1015 25.794 31.1015 25.5015 31.2561L22.4527 32.8682C21.7175 33.2569 20.8567 32.6306 21.0003 31.8115L21.5963 28.4109C21.6534 28.0849 21.5455 27.7517 21.308 27.521L18.8461 25.1295C18.2541 24.5543 18.5744 23.5501 19.3901 23.4239L22.8255 22.8927C23.1474 22.8429 23.4249 22.6395 23.5692 22.3475L25.0827 19.2852Z" fill="#FFCD1B"/>
<path d="M32.5931 34.0132C32.7351 34.8325 31.8732 35.4571 31.1388 35.0671L26.4992 32.6036C26.2059 32.4479 25.8545 32.4479 25.5612 32.6036L20.9246 35.0655C20.1896 35.4557 19.3274 34.83 19.4705 34.0103L20.3727 28.8434C20.43 28.515 20.3199 28.1795 20.079 27.949L16.264 24.2981C15.6609 23.7209 15.9886 22.7026 16.815 22.5855L22.0157 21.8484C22.3458 21.8016 22.6309 21.5933 22.7759 21.293L25.0803 16.5196C25.4421 15.7703 26.5073 15.7648 26.8768 16.5103L29.2213 21.2403C29.3677 21.5357 29.6504 21.74 29.9769 21.7863L35.1981 22.5263C36.0221 22.6431 36.3512 23.6565 35.7531 24.2351L31.9763 27.8887C31.7384 28.1189 31.6298 28.4519 31.6863 28.7781L32.5931 34.0132ZM22.0304 24.2937C21.2123 24.414 20.8854 25.4188 21.4762 25.9974L22.6555 27.1527C22.8918 27.3842 22.9983 27.7176 22.94 28.0433L22.6626 29.5922C22.5154 30.4142 23.3808 31.0438 24.1175 30.6509L25.4984 29.9144C25.7926 29.7575 26.1455 29.7575 26.4396 29.9144L27.8536 30.6685C28.5844 31.0583 29.4452 30.4415 29.311 29.6242L29.0502 28.0355C28.9974 27.7141 29.1045 27.3871 29.3372 27.1591L30.5269 25.9936C31.1169 25.4157 30.7916 24.4122 29.9748 24.2902L28.3835 24.0527C28.0588 24.0043 27.7786 23.7996 27.6337 23.505L26.9275 22.0691C26.5612 21.3242 25.4992 21.3242 25.1328 22.0691L24.4273 23.5038C24.2821 23.799 24.0009 24.0039 23.6754 24.0518L22.0304 24.2937Z" fill="#060F42"/>
</g>
<defs>
<clipPath id="clip0_47:6992">
<rect width="51.8043" height="60" fill="white" transform="translate(0.0976562)"/>
</clipPath>
</defs>
</svg>

<svg xmlns="http://www.w3.org/2000/svg" width="52" height="59" viewBox="0 0 52 59"><g><g><g/><g><g/><g><g><path fill="#01579b" d="M37.289 56.784a2 2 0 0 1-2.883 1.795l-7.547-3.713a2 2 0 0 0-1.77.002l-7.482 3.7a2 2 0 0 1-2.887-1.792V33.08a2 2 0 0 1 1.002-1.733l9.256-5.332a2 2 0 0 1 1.993-.003l9.312 5.336a2 2 0 0 1 1.006 1.735z"/></g><g><g><path fill="#fff" d="M25.968 50.578c-1.162 0-1.957-.856-2.63-1.59-.244-.245-.734-.734-.917-.795-.184 0-.734.305-1.101.489-.734.367-1.468.795-2.263.795-.245 0-.49-.061-.673-.122-1.1-.367-1.59-1.407-2.018-2.325-.184-.367-.428-.917-.612-1.04h-.183c-.306 0-.673.062-1.04.123-.49.061-.979.183-1.468.183-.611 0-1.162-.122-1.59-.489-.918-.673-1.101-1.835-1.223-2.813-.061-.367-.123-1.04-.245-1.223-.122-.123-.795-.184-1.162-.245-.979-.122-2.14-.306-2.814-1.223-.672-.918-.489-2.019-.305-3.058.06-.367.183-1.04.122-1.224-.122-.122-.673-.428-1.04-.611-.856-.428-1.957-.918-2.324-2.019-.367-1.04.184-2.08.673-2.935.183-.367.49-.918.49-1.163-.062-.183-.49-.611-.796-.856-.673-.55-1.529-1.407-1.529-2.569s.856-1.957 1.59-2.63c.306-.244.734-.734.795-.917 0-.184-.305-.734-.489-1.101-.49-.917-1.04-1.896-.673-2.936.367-1.1 1.407-1.59 2.324-2.018.367-.184.918-.428 1.04-.612.061-.183-.061-.795-.122-1.223-.184-.979-.367-2.14.306-3.058.672-.918 1.835-1.101 2.813-1.223.367-.061 1.04-.123 1.223-.245.123-.122.184-.795.245-1.162.122-.979.306-2.14 1.223-2.814.306-.305.857-.428 1.468-.428.49 0 .979.062 1.468.184.367.061.734.122 1.04.122h.183c.123-.122.428-.673.612-1.04.428-.856.917-1.957 2.018-2.324.245-.06.428-.122.673-.122.795 0 1.53.367 2.263.795.367.184.917.49 1.162.49.184-.062.612-.49.856-.796.673-.734 1.53-1.59 2.63-1.59 1.162 0 1.958.856 2.63 1.59.245.306.734.734.918.795.183 0 .734-.305 1.1-.489.735-.367 1.469-.795 2.264-.795.244 0 .489.061.672.122 1.101.367 1.59 1.407 2.019 2.324.183.367.428.918.611 1.04h.184c.306 0 .673-.061 1.04-.122a6.532 6.532 0 0 1 1.529-.184c.611 0 1.162.123 1.59.49.917.672 1.1 1.835 1.223 2.813.061.367.123 1.04.245 1.223.122.123.795.184 1.162.245.979.122 2.14.306 2.813 1.223.673.918.49 2.019.306 3.058-.061.367-.183 1.04-.122 1.224.122.122.673.428 1.04.611.856.428 1.957.918 2.324 2.018.367 1.04-.184 2.08-.673 2.936-.183.367-.49.918-.49 1.162.062.184.49.612.796.857.673.673 1.59 1.529 1.59 2.63 0 1.162-.856 1.957-1.59 2.63-.306.244-.734.734-.795.917 0 .183.306.734.489 1.101.49.917 1.04 1.896.673 2.936-.367 1.1-1.407 1.59-2.324 2.018-.367.184-.918.428-1.04.612-.061.183.061.795.122 1.223.184.979.367 2.14-.306 3.058-.672.918-1.834 1.101-2.813 1.223-.367.062-1.04.123-1.223.245-.123.122-.184.795-.245 1.162-.122.979-.306 2.14-1.223 2.814-.428.305-.918.489-1.59.489-.49 0-.98-.061-1.468-.184-.367-.06-.734-.122-1.04-.122h-.184c-.122.122-.428.673-.611 1.04-.428.856-.918 1.957-2.019 2.324-.244.061-.428.122-.672.122-.795 0-1.53-.367-2.263-.795-.367-.183-.918-.49-1.162-.49-.184.062-.612.49-.857.796-.611.55-1.468 1.468-2.63 1.468z"/></g><g><path fill="#060f42" d="M25.972 2.446c1.162 0 2.201 2.141 3.363 2.325h.184c1.04 0 2.385-1.285 3.425-1.285.122 0 .245 0 .306.061 1.1.367 1.407 2.753 2.446 3.242.184.122.49.122.734.122.795 0 1.713-.305 2.508-.305.306 0 .611.06.856.244.979.673.49 3.058 1.346 3.853.856.857 3.18.367 3.853 1.346.673.917-.49 3.058.061 4.098.55 1.04 2.875 1.345 3.242 2.446.367 1.101-1.407 2.753-1.224 3.915.184 1.162 2.325 2.14 2.325 3.364 0 1.223-2.141 2.201-2.324 3.364-.184 1.162 1.59 2.813 1.223 3.914-.367 1.1-2.753 1.407-3.242 2.446-.55 1.04.612 3.12-.061 4.098-.673.979-3.058.49-3.853 1.346-.857.856-.367 3.18-1.346 3.853-.245.183-.55.245-.856.245-.734 0-1.713-.306-2.508-.306-.305 0-.55.061-.734.122-1.04.55-1.345 2.875-2.446 3.242-.122.06-.184.06-.306.06-1.04 0-2.385-1.283-3.425-1.283h-.183c-1.163.183-2.141 2.324-3.364 2.324-1.224 0-2.202-2.141-3.364-2.324h-.184c-1.04 0-2.385 1.284-3.425 1.284-.122 0-.245 0-.306-.061-1.1-.367-1.407-2.753-2.446-3.242-.184-.122-.49-.122-.734-.122-.795 0-1.713.306-2.508.306-.306 0-.611-.061-.856-.245-.979-.673-.49-3.058-1.346-3.853-.856-.856-3.18-.367-3.853-1.346-.673-.917.49-3.058-.061-4.098-.55-1.04-2.936-1.345-3.242-2.446-.367-1.101 1.407-2.752 1.224-3.914-.184-1.163-2.325-2.141-2.325-3.364 0-1.163 2.141-2.202 2.325-3.364.183-1.162-1.59-2.814-1.224-3.915.367-1.1 2.753-1.407 3.242-2.446.55-1.04-.612-3.12.061-4.098.673-.979 3.058-.49 3.853-1.346.857-.856.367-3.18 1.346-3.853.245-.183.55-.245.856-.245.795 0 1.713.306 2.508.306.306 0 .55-.06.734-.122 1.04-.55 1.345-2.875 2.446-3.242.123-.06.184-.06.306-.06 1.04 0 2.385 1.284 3.425 1.284h.184c1.162-.184 2.202-2.325 3.364-2.325zm0-2.446c-1.652 0-2.814 1.162-3.548 1.957-.061.061-.122.184-.245.245-.122-.061-.244-.122-.305-.184-.795-.428-1.713-.917-2.814-.917-.367 0-.734.061-1.1.183-1.59.49-2.264 1.958-2.753 2.936a.468.468 0 0 0-.122.306c-.123 0-.245-.061-.367-.061a6.821 6.821 0 0 0-1.652-.184c-.917 0-1.651.245-2.324.673-1.345.979-1.529 2.569-1.712 3.609 0 .122-.062.244-.062.367-.122 0-.244.06-.366.06-1.04.123-2.63.368-3.609 1.713-.979 1.346-.673 2.936-.49 3.976 0 .122.062.245.062.367-.122.061-.184.122-.306.122-.979.49-2.446 1.162-2.936 2.752-.49 1.59.245 2.936.734 3.915.061.122.123.183.184.306l-.245.244C1.262 23.12.1 24.22.1 25.872c0 1.65 1.162 2.813 1.957 3.547.061.061.184.122.245.245-.061.122-.122.244-.184.305-.55.979-1.284 2.325-.734 3.915.49 1.59 1.958 2.263 2.936 2.752.061.061.184.122.306.184 0 .122-.061.244-.061.366-.184.98-.49 2.57.49 3.915.978 1.345 2.568 1.529 3.608 1.712.122 0 .244.062.367.062 0 .122.06.244.06.367.123 1.04.368 2.63 1.713 3.608.612.49 1.407.673 2.324.673.612 0 1.163-.122 1.652-.184.122 0 .244-.06.367-.06.061.122.122.183.122.305.49.979 1.162 2.447 2.752 2.936.367.122.734.183 1.101.183 1.101 0 2.08-.489 2.814-.917.122-.061.183-.122.306-.183l.244.244c.734.795 1.896 1.957 3.548 1.957 1.651 0 2.813-1.162 3.547-1.957.061-.061.122-.183.245-.244.122.06.244.122.306.183.795.428 1.712.917 2.813.917.367 0 .734-.06 1.101-.183 1.59-.49 2.263-1.957 2.752-2.936a.467.467 0 0 0 .123-.306c.122 0 .244.062.367.062.489.06 1.1.183 1.65.183.918 0 1.652-.245 2.325-.673 1.346-.978 1.53-2.569 1.713-3.608 0-.123.06-.245.06-.367.123 0 .245-.061.368-.061 1.04-.123 2.63-.368 3.608-1.713.979-1.346.673-2.936.49-3.976 0-.122-.062-.244-.062-.367.123-.06.184-.122.306-.122.979-.49 2.447-1.162 2.936-2.752.49-1.59-.245-2.936-.734-3.915-.061-.122-.122-.183-.183-.305.06-.062.183-.184.244-.245.795-.734 1.957-1.896 1.957-3.547 0-1.652-1.162-2.814-1.957-3.548-.06-.061-.183-.122-.244-.245.06-.122.122-.244.183-.305.55-.979 1.285-2.325.734-3.915-.49-1.59-1.957-2.263-2.936-2.752a.468.468 0 0 0-.306-.122c0-.123.062-.245.062-.367.183-1.04.489-2.63-.49-3.976-.978-1.345-2.568-1.529-3.608-1.712-.123 0-.245-.062-.367-.062 0-.122-.061-.244-.061-.366-.123-1.04-.367-2.63-1.713-3.609-.611-.49-1.407-.673-2.324-.673-.612 0-1.162.123-1.651.184-.123 0-.245.06-.367.06-.062-.06-.123-.183-.184-.244-.49-.978-1.162-2.446-2.752-2.936a3.464 3.464 0 0 0-1.101-.183c-1.101 0-2.08.49-2.814.917-.122.062-.183.123-.305.184a564.12 564.12 0 0 1-.245-.245C28.785 1.162 27.684 0 25.972 0z"/></g></g><g><g><path fill="#fff" d="M42.176 25.868c0 8.99-7.217 16.208-16.208 16.208-8.93 0-16.208-7.278-16.208-16.208S17.038 9.66 25.968 9.66c8.99 0 16.208 7.278 16.208 16.208z"/></g><g><path fill="#060f42" d="M25.971 43.302c-9.602 0-17.431-7.828-17.431-17.43 0-9.603 7.829-17.432 17.431-17.432 9.603 0 17.431 7.829 17.431 17.431 0 9.603-7.828 17.431-17.43 17.431zm0-32.416c-8.257 0-14.985 6.728-14.985 14.985s6.728 14.985 14.985 14.985 14.985-6.728 14.985-14.985-6.728-14.985-14.985-14.985z"/></g></g><g><g><path fill="#ffcd1b" d="M25.087 19.283a1 1 0 0 1 1.788-.008l1.557 3.078a1 1 0 0 0 .74.537l3.44.532a1 1 0 0 1 .545 1.705l-2.467 2.396a1 1 0 0 0-.29.88l.566 3.428a1 1 0 0 1-1.454 1.047l-3.072-1.624a1 1 0 0 0-.935 0l-3.049 1.612a1 1 0 0 1-1.452-1.057l.596-3.4a1 1 0 0 0-.288-.89l-2.462-2.392a1 1 0 0 1 .544-1.705l3.435-.532a1 1 0 0 0 .744-.545z"/></g><g><path fill="#060f42" d="M32.597 34.014a1 1 0 0 1-1.454 1.054l-4.64-2.463a1 1 0 0 0-.938 0l-4.637 2.462a1 1 0 0 1-1.454-1.055l.902-5.167a1 1 0 0 0-.293-.895l-3.815-3.65a1 1 0 0 1 .55-1.713l5.201-.737a1 1 0 0 0 .76-.556l2.305-4.773a1 1 0 0 1 1.797-.01l2.344 4.73a1 1 0 0 0 .756.547l5.22.74a1 1 0 0 1 .556 1.708L31.98 27.89a1 1 0 0 0-.29.89zm-10.563-9.719a1 1 0 0 0-.554 1.704l1.18 1.155a1 1 0 0 1 .284.89l-.278 1.55a1 1 0 0 0 1.455 1.058l1.381-.736a1 1 0 0 1 .941 0l1.414.754a1 1 0 0 0 1.458-1.044l-.261-1.59a1 1 0 0 1 .287-.876l1.19-1.165a1 1 0 0 0-.553-1.703l-1.59-.238a1 1 0 0 1-.75-.548l-.707-1.436a1 1 0 0 0-1.795 0l-.705 1.435a1 1 0 0 1-.752.548z"/></g></g></g></g></g></g></svg>
